X: 1
T: the Muckin' o' Geordie's Byre
O: BSFC IX-8
R: jig
Z: 2015 John Chambers <jc:trillian.mit.edu>
M: 6/8
L: 1/8
K: D
d |:\
"D"A>AA A<FA | "D"d2e f2a | "G"g2e "D"f2d | "Em"efd "A"Bcd |
"D"A>AA A<FA | "D"d2e f2g | "D"afd "A7"e>fe |1 "D"d3 dcB :|2 "D"d3 def |
|:\
"G"gdg gag | "D"fdf fgf | "Em"ede "A7"efg | "D"fed "G"Bcd |
"D"A>AA A<FA | "D"d2e f2g | "D"afd "A7"efe |1 "D"d3 def :|2 "D"d3 D2 |]
